!!!COM:	la Rue, Pierre de
!!!CDT:	~1452///-1518/11/20
!!!OTL:	O domine Jesu Christe
!!!AGN:	Motet
!!!SCT:	Rue2015
!!!SCA:	Rue2015
!!!voices:	4
**kern	**kern	**kern	**kern
*staff4	*staff3	*staff2	*staff1
*Ivox	*Ivox	*Ivox	*Ivox
*I"Bassus	*I"Tenor	*I"Contra	*I"Discantus
*I'B	*I'T	*I'C	*I'D
*clefF4	*clefGv2	*clefG2	*clefG2
*k[]	*k[]	*k[]	*k[]
*M2/1	*M2/1	*M2/1	*M2/1
*met(C|)	*met(C|)	*met(C|)	*met(C|)
!!section: O domine Jesu Christe
!!!OMD: O domine Jesu Christe
=1-	=1-	=1-	=1-
0r	1A	0r	0r
.	[1c	.	.
=2	=2	=2	=2
0E	2c\]	0r	0r
.	4B\	.	.
.	4A/	.	.
.	2B\	.	.
.	2c\	.	.
=3	=3	=3	=3
1D	1d	0r	0r
[1F	2.c\	.	.
.	4B\	.	.
=4	=4	=4	=4
2F\]	2A/	0r	0r
4E\	4G/	.	.
4D\	4F/	.	.
2E\	2G/	.	.
2F\	2A/	.	.
=5	=5	=5	=5
1G	1B	1d	0r
2.F\	[1A	[1f	.
4E\	.	.	.
=6	=6	=6	=6
2D\	2A/]	2f/]	0r
4C/	2B\	4e/	.
4BB/	.	4d/	.
2C/	2A/	2e/	.
2D\	[2d\	2f/	.
=7	=7	=7	=7
1E	4d\]	1g	1r
.	4c#i\	.	.
.	2c#i\	.	.
1D	1d	1f	1a
=8	=8	=8	=8
0AA	2.c\	2f/	1.cc
.	.	1e	.
.	4B\	.	.
.	2A/	.	.
.	4G/	2f/	4b\
.	4F/	.	4a/
=9	=9	=9	=9
0r	2G/	2e/	2b\
.	2A/	2.a/	2cc\
.	1B	.	1dd
.	.	4g#i/	.
.	.	2g#i/	.
=10	=10	=10	=10
1AA	0A	2.a/	2.cc\
.	.	4g/	4b\
2C/	.	2e/	2a/
2D\	.	2f/	4g/
.	.	.	4f/
=11	=11	=11	=11
2E\	0r	2e/	2g/
2F\	.	1d	2a/
1G	.	.	[1b
.	.	[2g/	.
=12	=12	=12	=12
0D	1.d	2g/]	2b\]
.	.	4f/	1a
.	.	4e/	.
.	.	2f/	.
.	2B\	2d/	2b\
=13	=13	=13	=13
1r	2c\	2e/	2a/
.	2d\	2f/	2.dd\
2r	1e	2g/	.
.	.	.	4cc#i\
2A\	.	2a/	2cc#i\
=14	=14	=14	=14
2B-i\	[0d	2f/	0dd
4A\	.	2g/	.
4G\	.	.	.
2F\	.	2d/	.
2G\	.	2g/	.
=15	=15	=15	=15
2D\	0d]	2f/	0r
2G\	.	2g/	.
2F\	.	2a/	.
[2G\	.	[2b-i\	.
=16	=16	=16	=16
4G\]	0r	2b-\]	0r
4F\	.	.	.
4G\	.	2.a/	.
4A\	.	.	.
1B-i	.	.	.
.	.	4g/	.
.	.	2g/	.
=17	=17	=17	=17
0A	1r	[0a	2r
.	.	.	2ee\
.	2r	.	2ff\
.	2e\	.	4ee\
.	.	.	4dd\
=18	=18	=18	=18
0r	2f\	0a]	2cc\
.	4e\	.	2dd\
.	4d\	.	.
.	2c\	.	2a/
.	2d\	.	2dd\
=19	=19	=19	=19
0r	2A/	0r	2cc\
.	2.d\	.	2.b\
.	4c\	.	4a/
.	2c\	.	[2a/
=20	=20	=20	=20
2r	2d\	0r	2a/]
2A\	2A/	.	2cc\
2B-i\	2d\	.	2dd\
4A\	2c\	.	2ee\
4G\	.	.	.
=21	=21	=21	=21
2F\	2d\	0r	2ff\
2G\	2e\	.	2.ee\
1D	1f	.	.
.	.	.	4dd\
.	.	.	2dd\
=22	=22	=22	=22
1r	1e	1r	1ee
[1F	[1c	[1f	[1a
=23	=23	=23	=23
2F\]	2c\]	2f/]	2a/]
2F\	2c\	2f/	2a/
1A	1A	2e/	1cc
.	.	2f/	.
=24	=24	=24	=24
1G	1B-i	1g	1b-i
1D	[1d	[1f	1a
=25	=25	=25	=25
2r	1d]	2f/]	2b-i\
1F	.	4e/	1a
.	.	4d/	.
.	1A	2c/	.
4E\	.	2d/	4g/
4D\	.	.	4f/
=26	=26	=26	=26
2E\	2r	2c/	2g/
2D\	1A	1d	2f/
1F	.	.	[1a
.	2A/	2f/	.
=27	=27	=27	=27
1A	1c	2e/	2a/]
.	.	2f/	2a/
1G	1B	1g	1b
=28	=28	=28	=28
0D	[0A	0f	0dd
=29	=29	=29	=29
0AA	0A]	2r	1cc
.	.	2f/	.
.	.	2e/	2r
.	.	2f/	2cc\
=30	=30	=30	=30
0r	0r	2g/	2b\
.	.	2a/	2cc\
.	.	2f/	2dd\
.	.	2g/	2ee\
=31	=31	=31	=31
0r	0r	2e/	2cc\
.	.	2f/	2dd\
.	.	2d/	2b\
.	.	[2a/	2cc\
=32	=32	=32	=32
0r	1r	2a/]	4b\
.	.	.	4a/
.	.	4g/	1dd
.	.	4f/	.
.	2r	1e	.
.	2A/	.	2cc#i\
=33	=33	=33	=33
2r	1B	1d	1dd
2D\	.	.	.
1E	1c	1r	1r
=34	=34	=34	=34
1F	1.d	0r	0r
1G	.	.	.
.	2B\	.	.
=35	=35	=35	=35
2E\	2c\	0r	0r
2F\	1d	.	.
1G	.	.	.
.	2B\	.	.
=36	=36	=36	=36
2E\	2c\	0r	0r
2F\	1d	.	.
2.G\	.	.	.
.	2B\	.	.
4F\	.	.	.
=37	=37	=37	=37
2E\	2c\	0r	0r
2D\	2.d\	.	.
1E	.	.	.
.	4c#i\	.	.
.	2c#i\	.	.
=38	=38	=38	=38
1D	2d\	1.a	1r
.	1f	.	.
2r	.	.	1cc
2A\	4e\	2a/	.
.	4d\	.	.
=39	=39	=39	=39
1c	2.e\	2g/	1cc
.	.	2.cc\	.
.	4f\	.	.
1G	1d	.	1dd
.	.	4b\	.
.	.	2b\	.
=40	=40	=40	=40
1C	1c	1cc	1ee
1r	1d	[1f	[1a
=41	=41	=41	=41
1F	0A	1f]	1a]
1F	.	1a	1a
=42	=42	=42	=42
1G	0e	1g	1b
1A	.	1e	1cc
=43	=43	=43	=43
0D	1.d	0f	2.dd\
.	.	.	4cc\
.	.	.	4b\
.	.	.	4a/
.	2c\	.	[2a/
=44	=44	=44	=44
1E	1B	1e	2a/]
.	.	.	2g/
1F	2r	2r	2a/
.	2A/	2a/	2cc\
=45	=45	=45	=45
2G\	2B\	2g/	2b\
1A	1c	2f/	2a/
.	.	2.e/	2cc\
4G\	2d\	.	4b\
4F\	.	4f/	4a/
=46	=46	=46	=46
2E\	2e\	2g/	2g/
2D\	2.f\	1f	2a/
2A\	.	.	1f
.	4c\	.	.
2B\	2d\	4e/	.
.	.	4d/	.
=47	=47	=47	=47
2c\	2e\	2.c/	[0e
1A	1c	.	.
.	.	4d/	.
.	.	4e/	.
.	.	4f/	.
2G\	2B\	2g/	.
=48	=48	=48	=48
1A	2c\	2e/	0e]
.	2A/	1a	.
1E	1B	.	.
.	.	2g#i/	.
=49	=49	=49	=49
1r	0A	[0a	1r
[1A	.	.	[1cc
=50	=50	=50	=50
1A]	1r	0a]	1cc]
1A	[1c	.	[1cc
=51	=51	=51	=51
0F	1c]	1a	2cc\]
.	.	.	4b\
.	.	.	4a/
.	1A	1a	2cc\
.	.	.	2dd\
=52	=52	=52	=52
1E	1B	1g	1.ee
[1A	[1c	1e	.
.	.	.	2a/
=53	=53	=53	=53
2A\]	2c\]	0f	0a
2D\	2d\	.	.
[1D	1d	.	.
=54	=54	=54	=54
1D]	0A	1.f	0ff
[1F	.	.	.
.	.	4e/	.
.	.	4d/	.
=55	=55	=55	=55
2F\]	1r	2c/	1ff
2G\	.	2B/	.
2A\	[1c	2c/	1ee
2B\	.	2d/	.
=56	=56	=56	=56
2c\	2c\]	2e/	2ee\
2d\	2B\	2f/	1dd
1B	1d	1g	.
.	.	.	2b\
=57	=57	=57	=57
1.A	2e\	0a	[0cc
.	2e\	.	.
.	2e\	.	.
2F\	[2f\	.	.
=58	=58	=58	=58
1c	4f\]	2r	0cc]
.	4e\	.	.
.	2e\	2g/	.
[1F	2f\	2a/	.
.	4e\	[2a/	.
.	4d\	.	.
=59	=59	=59	=59
2F\]	0c	2a/]	0r
4E\	.	4g/	.
4D\	.	4f/	.
1C	.	1e	.
=60	=60	=60	=60
1D	2r	0a	1r
.	2.A/	.	.
1AA	.	.	2r
.	4B\	.	.
.	2c\	.	2ee\
=61	=61	=61	=61
0r	2A/	1a	2ee\
.	1d	.	2.ff\
.	.	1g	.
.	.	.	4ee\
.	2c\	.	2ee\
=62	=62	=62	=62
1r	2d\	1f	2ff\
.	4c\	.	4ee\
.	4B\	.	4dd\
2.AA/	[1A	2f/	1cc
.	.	[2e/	.
4BB/	.	.	.
=63	=63	=63	=63
2C/	1A]	4e/]	2r
.	.	4d/	.
2.D\	.	1d	2.a/
.	1A	.	.
4C/	.	.	4b\
2AA/	.	2c/	2cc\
=64	=64	=64	=64
1D	0A	2d/	2a/
.	.	2f/	1dd
1AA	.	1e	.
.	.	.	2cc\
=65	=65	=65	=65
0r	0r	2c/	2a/
.	.	2d/	1b
.	.	2e/	.
.	.	[2f/	[2a/
=66	=66	=66	=66
0r	0r	4f/]	4a/]
.	.	4e/	4g/
.	.	4d/	4f/
.	.	4c/	4e/
.	.	1d	1f
=67	=67	=67	=67
1.A	2r	1c	0e
.	2A/	.	.
.	2.c\	1r	.
2A\	.	.	.
.	4d\	.	.
=68	=68	=68	=68
1A	2e\	0r	0r
.	1f	.	.
1B-i	.	.	.
.	4e\	.	.
.	4d\	.	.
=69	=69	=69	=69
1A	2.c\	1r	2r
.	.	.	2e/
.	4d\	.	.
1E	1e	2r	2.g/
.	.	2c/	.
.	.	.	4a/
=70	=70	=70	=70
1E	0r	2B/	2b\
.	.	2.e/	1cc
1F	.	.	.
.	.	4d/	.
.	.	2d/	4b\
.	.	.	4a/
=71	=71	=71	=71
[0E	2r	[0e	1g
.	2c\	.	.
.	2B\	.	1g
.	[2c\	.	.
=72	=72	=72	=72
0E]	2c\]	0e]	1g
.	4B\	.	.
.	4A/	.	.
.	1B	.	1g
=73	=73	=73	=73
2.F\	0A	2r	1a
.	.	2.a/	.
4G\	.	.	.
1A	.	.	1cc
.	.	4g/	.
.	.	2e/	.
=74	=74	=74	=74
0D	1r	2f/	1dd
.	.	2d/	.
.	1d	[1a	1ff
=75	=75	=75	=75
0A	1.c	2a/]	2ff\
.	.	4g/	1ee
.	.	4f/	.
.	.	2e/	.
.	2A/	2f/	4dd\
.	.	.	4cc\
=76	=76	=76	=76
2G\	2B\	2g/	2b\
2F\	2A/	1a	2cc\
1A	2e\	.	2a/
.	2c\	2f/	2cc\
=77	=77	=77	=77
2G\	2d\	2g/	2b\
2F\	2A/	1a	2cc\
1A	2e\	.	2a/
.	2c\	2f/	2cc\
=78	=78	=78	=78
2G\	2d\	2g/	4b\
.	.	.	4a/
2F\	2f\	2.a/	1dd
1A	1e	.	.
.	.	4e/	.
.	.	2a/	2cc#i\
=79	=79	=79	=79
2r	2d\	2f/	0dd
2D\	1f	1a	.
2F\	.	.	.
2G\	4e\	4g/	.
.	4d\	4f/	.
=80	=80	=80	=80
2A\	2c\	2e/	1r
2D\	1d	1f	.
2.F\	.	.	2r
.	4c\	4e/	2a/
4G\	4B\	4d/	.
=81	=81	=81	=81
0A	2A/	0c	2.cc\
.	2f\	.	.
.	.	.	4dd\
.	2e\	.	2ee\
.	[2f\	.	2a/
=82	=82	=82	=82
0A	2f\]	2r	2cc\
.	4e\	2.a/	2dd\
.	4d\	.	.
.	4c#i\	.	1ee
.	4B\	4e/	.
.	2c#i\	2a/	.
=83	=83	=83	=83
2r	0d	2f/	2.ff\
2D\	.	1a	.
.	.	.	4ee\
2F\	.	.	2dd\
2G\	.	4g/	4cc\
.	.	4f/	4b\
=84	=84	=84	=84
2A\	0r	2e/	2cc\
2D\	.	1f	1dd
2F\	.	.	.
2G\	.	4e/	4cc\
.	.	4d/	4b\
=85	=85	=85	=85
[0A	2r	1f	[0cc
.	2A/	.	.
.	2.c\	1e	.
.	4d\	.	.
=86	=86	=86	=86
0A]	2e\	0a	0cc]
.	2A/	.	.
.	2c\	.	.
.	2d\	.	.
=87	=87	=87	=87
[0A	2e\	[0a	[0cc
.	1f	.	.
.	4e\	.	.
.	4d\	.	.
=88	=88	=88	=88
0A;]	0e;	0a;]	0cc;]
=89	=89	=89	=89
0D	[0dl	2r	[0ddl
.	.	2d/	.
.	.	2.f/	.
.	.	4g/	.
=90	=90	=90	=90
[0Dl	0d_	2a/	0dd_
.	.	2d/	.
.	.	2f/	.
.	.	2g/	.
=91	=91	=91	=91
0D_	0d_	2a/	0dd_
.	.	1b-i	.
.	.	4a/	.
.	.	4g/	.
=92	=92	=92	=92
0D]	0d]	0al	0dd]
==	==	==	==
*-	*-	*-	*-
!!!RDF**kern: l=long note in original notation
!!!RDF**kern: i=editorial accidental
!!!ENC:	Chris Gage 01-04-2013
!!!END:	2013/07/21/
!!!EED:	Jesse Rodin
!!!EEV:	2013/08/05/
!!!ONB:	Translated from MusicXML and edited on 2013/08/05/ by Craig Sapp
!!muse2ps: C^@{COM}^i2I150v85,85,85,150Q16
